Adwaita++-Light/panel/16/onboard.svg

<svg height="16" width="16" xmlns="http://www.w3.org/2000/svg">
  <path d="m3 1.002c-1.108 0-2 .892-2 2v10c0 1.108.892 2 2 2h10c1.108 0 2-.892 2-2v-10c0-1.108-.892-2-2-2zm2.4961 1.9668c.7798 0 1.3901.2236 1.8319.6699.442.4462.662 1.0613.662 1.8476 0 .7842-.22 1.3995-.662 1.8457-.4418.446-1.0521.67-1.8319.67-.7777 0-1.3899-.224-1.834-.67-.4419-.4462-.6621-1.0615-.6621-1.8457 0-.7863.2202-1.4014.6621-1.8476.4441-.4463 1.0563-.6699 1.834-.6699zm0 .9062c-.3813 0-.6766.1403-.8867.4219-.2102.2816-.3164.6782-.3164 1.1894 0 .5091.1062.9059.3164 1.1875.2101.2816.5054.4222.8867.4222.3834 0 .6805-.1406.8906-.4222s.3145-.6784.3145-1.1875c0-.5112-.1044-.9078-.3145-1.1894s-.5072-.4219-.8906-.4219zm3.5679 3.275h1.879c.674 0 1.16.101 1.461.305.304.204.455.53.455.979 0 .236-.055.438-.166.605-.11.165-.27.287-.48.367.269.078.478.222.625.432s.221.468.221.773c0 .468-.159.818-.475 1.047-.316.23-.798.344-1.443.344h-2.077zm1.252.852v1.027h.692c.197 0 .345-.044.447-.131.102-.086.154-.213.154-.382 0-.167-.052-.295-.154-.381-.102-.089-.25-.133-.447-.133zm-.002 1.879v1.269h.735c.251 0 .441-.052.566-.158.128-.106.192-.268.192-.482 0-.21-.062-.367-.188-.471-.126-.106-.317-.158-.57-.158z" fill="#444"/>
</svg>

<svg xmlns="http://www.w3.org/2000/svg" width="16" height="16" version="1.1">
 <defs>
  <style id="current-color-scheme" type="text/css">
   .ColorScheme-Text { color:#444444; } .ColorScheme-Highlight { color:#4285f4; }
  </style>
 </defs>
 <path style="fill:currentColor" class="ColorScheme-Text" d="M 3,1.002 C 1.892,1.002 1,1.894 1,3.002 V 13.002 C 1,14.11 1.892,15.002 3,15.002 H 13 C 14.108,15.002 15,14.11 15,13.002 V 3.002 C 15,1.894 14.108,1.002 13,1.002 Z M 5.4961,2.9688 C 6.2759,2.9688 6.8862,3.1924 7.328,3.6387 7.77,4.0849 7.99,4.7 7.99,5.4863 7.99,6.2705 7.77,6.8858 7.328,7.332 6.8862,7.778 6.2759,8.002 5.4961,8.002 4.7184,8.002 4.1062,7.778 3.6621,7.332 3.2202,6.8858 3,6.2705 3,5.4863 3,4.7 3.2202,4.0849 3.6621,3.6387 4.1062,3.1924 4.7184,2.9688 5.4961,2.9688 Z M 5.4961,3.875 C 5.1148,3.875 4.8195,4.0153 4.6094,4.2969 4.3992,4.5785 4.293,4.9751 4.293,5.4863 4.293,5.9954 4.3992,6.3922 4.6094,6.6738 4.8195,6.9554 5.1148,7.096 5.4961,7.096 5.8795,7.096 6.1766,6.9554 6.3867,6.6738 6.5968,6.3922 6.7012,5.9954 6.7012,5.4863 6.7012,4.9751 6.5968,4.5785 6.3867,4.2969 6.1766,4.0153 5.8795,3.875 5.4961,3.875 Z M 9.064,7.15 H 10.943 C 11.617,7.15 12.103,7.251 12.404,7.455 12.708,7.659 12.859,7.985 12.859,8.434 12.859,8.67 12.804,8.872 12.693,9.039 12.583,9.204 12.423,9.326 12.213,9.406 12.482,9.484 12.691,9.628 12.838,9.838 12.985,10.048 13.059,10.306 13.059,10.611 13.059,11.079 12.9,11.429 12.584,11.658 12.268,11.888 11.786,12.002 11.141,12.002 H 9.064 Z M 10.316,8.002 V 9.029 H 11.008 C 11.205,9.029 11.353,8.985 11.455,8.898 11.557,8.812 11.609,8.685 11.609,8.516 11.609,8.349 11.557,8.221 11.455,8.135 11.353,8.046 11.205,8.002 11.008,8.002 Z M 10.314,9.881 V 11.15 H 11.049 C 11.3,11.15 11.49,11.098 11.615,10.992 11.743,10.886 11.807,10.724 11.807,10.51 11.807,10.3 11.745,10.143 11.619,10.039 11.493,9.933 11.302,9.881 11.049,9.881 Z"/>
</svg>
